src/images/svg/be-square/maximize.svg

<svg width="32" height="32" viewBox="0 0 32 32" fill="none" xmlns="http://www.w3.org/2000/svg">
<path fill-rule="evenodd" clip-rule="evenodd" d="M16.5 10.5C16.5 10.2239 16.2761 10 16 10C15.7239 10 15.5 10.2239 15.5 10.5V15.5H10.5C10.2239 15.5 10 15.7239 10 16C10 16.2761 10.2239 16.5 10.5 16.5H15.5V21.5C15.5 21.7761 15.7239 22 16 22C16.2761 22 16.5 21.7761 16.5 21.5V16.5H21.5C21.7761 16.5 22 16.2761 22 16C22 15.7239 21.7761 15.5 21.5 15.5H16.5V10.5Z" fill="#333333"/>
<circle cx="16" cy="16" r="15.5" stroke="#333333" stroke-opacity="0.16"/>
</svg>

<svg xmlns="http://www.w3.org/2000/svg" width="32" height="32" fill="none"  xmlns:v="https://vecta.io/nano"><path fill-rule="evenodd" d="M16.5 10.5a.5.5 0 1 0-1 0v5h-5a.5.5 0 1 0 0 1h5v5a.5.5 0 1 0 1 0v-5h5a.5.5 0 1 0 0-1h-5v-5z" fill="#333"/><circle cx="16" cy="16" r="15.5" stroke="#333" stroke-opacity=".16"/></svg>
